dist/svg/u262E.svg

<?xml version="1.0" encoding="UTF-8"?><svg id="a" xmlns="http://www.w3.org/2000/svg" viewBox="0 0 40 40"><g><rect x="3.5" y="3.5" width="33" height="33" rx="8" ry="8" fill="#786de7"/><path d="M20,7.954c-6.642,0-12.046,5.404-12.046,12.046s5.404,12.045,12.046,12.045,12.046-5.404,12.046-12.045-5.404-12.046-12.046-12.046Zm9.586,12.046c0,2.005-.621,3.867-1.678,5.407l-6.678-6.105V10.502c4.706,.607,8.356,4.63,8.356,9.498Zm-10.816,9.497c-1.908-.246-3.64-1.052-5.028-2.252l5.028-4.534v6.787Zm2.46-6.862l5.036,4.603c-1.389,1.204-3.124,2.013-5.036,2.259v-6.862Zm-2.46-12.134v8.896l-6.672,6.017c-1.06-1.542-1.684-3.406-1.684-5.415,0-4.868,3.65-8.891,8.356-9.498Z" fill="#fff"/></g><rect x="0" y="0" width="40" height="40" transform="translate(40 40) rotate(-180)" fill="none"/></svg>

<svg id="Layer_1" data-name="Layer 1" xmlns="http://www.w3.org/2000/svg" viewBox="0 0 40 40"><defs><style>.cls-1{fill:#786de7;}.cls-2{fill:#fff;}.cls-3{fill:none;}</style></defs><rect class="cls-1" x="3.5" y="3.5" width="33" height="33" rx="8"/><path class="cls-2" d="M20,7.954A12.046,12.046,0,1,0,32.046,20,12.06,12.06,0,0,0,20,7.954ZM29.586,20a9.528,9.528,0,0,1-1.678,5.408L21.23,19.3V10.5A9.594,9.594,0,0,1,29.586,20ZM18.77,29.5a9.532,9.532,0,0,1-5.028-2.253l5.028-4.534Zm2.46-6.862,5.035,4.6A9.547,9.547,0,0,1,21.23,29.5ZM18.77,10.5v8.9L12.1,25.416A9.57,9.57,0,0,1,18.77,10.5Z"/><rect class="cls-3" width="40" height="40" transform="translate(40 40) rotate(-180)"/></svg>
